src/assets/duotone/Keyboard.svg

<svg width="24" height="24" viewBox="0 0 24 24"  xmlns="http://www.w3.org/2000/svg">
<path opacity="0.4" d="M18.27 3.35C17.8 3.28 17.26 3.25 16.5 3.25H7.5C6.75 3.25 6.2 3.28 5.76 3.34C2.41 3.71 1.75 5.7 1.75 9V15C1.75 18.3 2.41 20.29 5.73 20.65C6.2 20.72 6.74 20.75 7.5 20.75H16.5C17.25 20.75 17.8 20.72 18.24 20.66C21.59 20.29 22.25 18.31 22.25 15V9C22.25 5.7 21.59 3.71 18.27 3.35Z" />
<path d="M17 10.75H13.5C13.09 10.75 12.75 10.41 12.75 10C12.75 9.59 13.09 9.25 13.5 9.25H17C17.41 9.25 17.75 9.59 17.75 10C17.75 10.41 17.41 10.75 17 10.75Z" />
<path d="M10.1001 11C9.5501 11 9.1001 10.55 9.1001 10C9.1001 9.45 9.5401 9 10.1001 9H10.1101C10.6601 9 11.1101 9.45 11.1101 10C11.1101 10.55 10.6601 11 10.1001 11Z" />
<path d="M7.1001 11C6.5501 11 6.1001 10.55 6.1001 10C6.1001 9.45 6.5401 9 7.1001 9C7.6501 9 8.1001 9.45 8.1001 10C8.1001 10.55 7.6601 11 7.1001 11Z" />
<path d="M16.9998 16.25H7.01977C6.60977 16.25 6.25977 15.91 6.25977 15.5C6.25977 15.09 6.58977 14.75 6.99977 14.75H16.9998C17.4098 14.75 17.7498 15.09 17.7498 15.5C17.7498 15.91 17.4098 16.25 16.9998 16.25Z" />
</svg>

<?xml version="1.0" encoding="UTF-8"?>
<svg width="24" height="24" viewBox="0 0 24 24" xmlns="http://www.w3.org/2000/svg">
 <path d="m18.27 3.35c-0.47-0.07-1.01-0.1-1.77-0.1h-9c-0.75 0-1.3 0.03-1.74 0.09-3.35 0.37-4.01 2.36-4.01 5.66v6c0 3.3 0.66 5.29 3.98 5.65 0.47 0.07 1.01 0.1 1.77 0.1h9c0.75 0 1.3-0.03 1.74-0.09 3.35-0.37 4.01-2.35 4.01-5.66v-6c0-3.3-0.66-5.29-3.98-5.65z" opacity=".4"/>
 <path d="m17 10.75h-3.5c-0.41 0-0.75-0.34-0.75-0.75s0.34-0.75 0.75-0.75h3.5c0.41 0 0.75 0.34 0.75 0.75s-0.34 0.75-0.75 0.75z"/>
 <path d="m10.1 11c-0.55 0-1-0.45-1-1s0.44-1 1-1h0.01c0.55 0 1 0.45 1 1s-0.45 1-1.01 1z"/>
 <path d="m7.1001 11c-0.55 0-1-0.45-1-1s0.44-1 1-1c0.55 0 1 0.45 1 1s-0.44 1-1 1z"/>
 <path d="m17 16.25h-9.98c-0.41 0-0.76-0.34-0.76-0.75s0.33-0.75 0.74-0.75h10c0.41 0 0.75 0.34 0.75 0.75s-0.34 0.75-0.75 0.75z"/>
</svg>
